src/assets/icon-44-selection-circle-grey.svg

<?xml version="1.0" encoding="UTF-8"?>
<svg width="44px" height="44px" viewBox="0 0 44 44" version="1.1" xmlns="http://www.w3.org/2000/svg" xmlns:xlink="http://www.w3.org/1999/xlink">
    <g id="Page-1" stroke="none" stroke-width="1" fill="none" fill-rule="evenodd">
        <g id="icon-44-selection-circle" fill="#C9CBC8">
            <path d="M22.2558039,3.03459195 C22.2558039,3.57817586 21.8148064,4.00636207 21.2653501,4.02964406 C16.7694261,4.22703487 12.3696825,6.10477816 9.14252182,9.26100652 C5.65751566,12.6277851 3.61112332,17.3843973 3.58247382,22.2351498 C3.52517484,27.0838778 5.48971149,31.9143851 8.96141609,35.387451 C12.4095872,38.8807621 17.2861401,40.9336265 22.2558039,40.9619698 C27.2234214,41.0186563 32.1746676,39.0477851 35.7312975,35.5666211 C39.3094145,32.1097514 41.4131059,27.2174962 41.4407322,22.2351498 C41.4990543,17.254828 39.4782419,12.28969 35.9124032,8.72450843 C32.3711213,5.13705709 27.3574601,3.02851839 22.2558039,3.00219962 L22.2558039,0.977678543 C27.8864525,0.914918389 33.5191474,3.16517356 37.5403084,7.11400192 C41.591142,11.0304379 43.9762123,16.5968586 43.9987226,22.2351498 C44.0621607,27.8714165 41.7599694,33.5107199 37.7203909,37.5344556 C33.7156011,41.5895713 28.0204912,43.9764816 22.2558039,43.9987514 C16.4921399,44.0615115 10.7233599,41.755582 6.61011129,37.7136257 C2.46412041,33.7060862 0.0227743434,28.0040226 0.0012872238,22.2351498 C-0.063174135,16.4683015 2.29631624,10.6923429 6.42900557,6.57750383 C10.2516665,2.70864406 15.5814953,0.321733715 21.06685,0.00185938498 C21.7165796,-0.0355942549 22.2558039,0.497867048 22.2558039,1.14166475 L22.2558039,3.03459195 Z" id="Fill-1-Copy-2"></path>
        </g>
    </g>
</svg>

<svg width="44" height="44" xmlns="http://www.w3.org/2000/svg"><path d="M22.256 3.035c0 .543-.441.971-.99.995-4.497.197-8.896 2.075-12.123 5.231-3.485 3.367-5.532 8.123-5.56 12.974-.058 4.849 1.907 9.68 5.378 13.152 3.449 3.494 8.325 5.547 13.295 5.575 4.967.057 9.919-1.914 13.475-5.395 3.578-3.457 5.682-8.35 5.71-13.332.058-4.98-1.963-9.945-5.529-13.51-3.54-3.588-8.555-5.696-13.656-5.723V.978c5.63-.063 11.263 2.187 15.284 6.136 4.051 3.916 6.436 9.483 6.459 15.121.063 5.636-2.239 11.276-6.279 15.3-4.004 4.055-9.7 6.441-15.464 6.464-5.764.063-11.533-2.243-15.646-6.285C2.464 33.706.023 28.004.001 22.235-.063 16.468 2.296 10.692 6.43 6.578 10.252 2.708 15.581.322 21.067.002c.65-.038 1.189.496 1.189 1.14v1.893z" fill="#C9CBC8" fill-rule="evenodd"/></svg>
